!!!COM: Bach, Johann Sebastian
!!!CDT: 1685/3//-1750/7/28/
!!!OTL@@DE: Ich dank' dir, Gott, fuer all' Wohltat
!!!AGN: 4-Part Chorale
!!!SCT: BH 223
!!!SCT: BWV 346
!!!YEC: Copyright 1994, David Huron
!!!YEC: Changes/Additions 2001 by Craig Stuart Sapp
!!!YEN: United States of America
!!!SMA: 371 Bach Chorales, edited by Ludwig Erk, C.F. Peters
!!!PDT: 1850, 1865
!!!ONB: Harmony and Root analysis done manually
**kern	**kern	**kern	**kern	**root	**harm
!bass	!tenor	!alto	!soprno	!	!
*Iorgan	*Iorgan	*Iorgan	*Iorgan	*Iorgan	*
*M4/4	*M4/4	*M4/4	*M4/4	*M4/4	*M4/4
*met(C)	*met(C)	*met(C)	*met(C)	*met(C)	*met(C)
*MM60	*MM60	*MM60	*MM60	*MM60	*MM60
*k[]	*k[]	*k[]	*k[]	*k[]	*k[]
*C:	*C:	*C:	*C:	*C:	*C:
4C	8E	4c	4g	4CC;	I;
.	8F	.	.	.	.
=1	=1	=1	=1	=1	=1
4BB-	4G	4c	4e	4CC	V7d/IV
4AA	4A	4c	4f#	4FF#	viib/V
4GG;	4D;	4B;	4g;	4GG;	V;
4BBn	4G	[4d	4g	4GG	Vb
=2	=2	=2	=2	=2	=2
4C	[4G	8d]	4e	4CC	I
.	.	4c	.	.	.
4GG	8.G]	.	4d	4GG	V
.	.	8B	.	.	.
.	16F	.	.	.	.
4CC;	4E;	4G;	4c;	4CC;	I;
4C	4E	4G	4c	4CC	I
=3	=3	=3	=3	=3	=3
4BB	4G	4d	4g	4GG	Vb
8C	4c	[4e	4g	4CC	I
8BB	.	.	.	.	.
4AA	4c	8e]	4a	4FF#	viib/V
.	.	8f#	.	.	.
4GG	4d	[4g	4b	4GG	V
=4	=4	=4	=4	=4	=4
4E	4c	8g]	4cc	4CC	Ib
.	.	8f#	.	.	.
4D	4d	[4g	4b	4GG	Ic/V
4C	4e	4g_	4a	4AA	ii7b/V
4D	8.d	8g]	4a	4DD	V/V
.	.	8f#	.	.	.
.	16c	.	.	.	.
=5	=5	=5	=5	=5	=5
2GG;	2B;	2d;	2g;	2GG;	V;
4r	4r	4r	4r	4r	r
4E	4c	[4e	4g	4CC	Ib
!!linebreak: 3
=6	=6	=6	=6	=6	=6
4F	4c	8e]	4a	4DD	ii7b
.	.	[8d	.	.	.
4GG#	4B	8d]	4b	4EE	V7b/vi
.	.	8e	.	.	.
4AA;	4A;	4e;	4cc;	4AA;	vi;
4C	4E	[4c	4g	4CC	I
=7	=7	=7	=7	=7	=7
4.F	4F	8c]	4a	4FF	IV
.	.	8B	.	.	.
.	4G	8c	4g	8CC	Ib
8E	.	8c#	.	8CC#	viib/ii
8D	4A	8d	4f	4DD	ii
8E	.	8c#	.	.	.
8F	4A	[4d	4f	4DD	iib
8D	.	.	.	.	.
=8	=8	=8	=8	=8	=8
2A;	2A;	4d]	2e;	2AA;	VI;
.	.	4c#;	.	.	.
4r	4r	4r	4r	4r	r
4E	4c	[4g	4ccn	4CC	Ib
=9	=9	=9	=9	=9	=9
8F	4c	8g]	4a	4FF	IV
8E	.	16f	.	.	.
.	.	16e	.	.	.
4D	4d	4f	4b	4BB	viib
4C;	4G;	4e;	4cc;	4CC;	I;
[4D	8d	4f	4a	4DD	ii
.	8c	.	.	.	.
=10	=10	=10	=10	=10	=10
8D]	4B-	[4e	4g	4CC#	viioD7/ii
8C#	.	.	.	.	.
4D	4A	8e]	4f	4DD	ii
.	.	[8d	.	.	.
4AA;	4A;	8d]	4e;	4AA;	VI;
.	.	8c#;	.	.	.
4BBn	[4G	4d	4g	4GG	Vb
!!linebreak: 3
=11	=11	=11	=11	=11	=11
4C#	8G]	4e	4e	4AA	V7b/ii
.	[8A	.	.	.	.
4D#	8A]	4B	4f#	4AA	V7b/ii
.	16G	.	.	.	.
.	16F#	.	.	.	.
4E;	4E;	4B;	4g;	4EE;	iii;
8E	8e	8g	4cc	8CC	Ib
8F#	8d	[8a	.	8DD	V7b/V
=12	=12	=12	=12	=12	=12
4G	4d	8a]	4b	4GG	V
.	.	4g	.	.	.
4D	8.d	.	4a	4DD	V/V
.	.	8f#	.	.	.
.	16c	.	.	.	.
4GG;	4B;	4d;	4g;	4GG;	V;
4BB	4G	4d	4g	4GG	Vb
=13	=13	=13	=13	=13	=13
8C	4G	4c	8e	4CC	I
8D	.	.	8f	.	.
8E	8c	4c	4g	8CC	Ib
8C	8B-	.	.	8CC	V7/IV
4F	8.A	8c	4a	4FF	IV
.	.	4f	.	.	.
.	16Bn	.	.	.	.
[4C	8.c	.	4g	4CC	V/IV
.	.	8e	.	.	.
.	16B-	.	.	.	.
=14	=14	=14	=14	=14	=14
8C]	8A	4.d	4f	8DD	ii7d
8BB	8G	.	.	8GG	V7b
4C	4G	.	4e	4CC	I
.	.	[8c	.	.	.
4FF	8A	8c]	4d	8DD	ii7b
.	8D	16B	.	8BB	viic
.	.	16A	.	.	.
4GG	8G	4B	4d	4GG	V
.	8F	.	.	.	.
=15	=15	=15	=15	=15	=15
1CC;	1E;	1G;	1c;	1CC;	I;
==	==	==	==	==	==
*-	*-	*-	*-	*-	*-
!!chor2scor: -l 3 -s 0.6 -o %b.pmx
